X: 25
T: Noel's Waltz
I: Noel's Waltz	W-13	G	waltz
Z: Transcribed to abc by Mary Lou Knack
R: waltz
M: 3/4
C: W-13
K: G
D2| "G"G3 A Bc| d2 B2 d2| "C"e3 d ce| "G"d4 d2|    "D"c2 A3 c| "G"B2 G2 B2| "D"A2 d2 "A7"e2| "D"f4 d2|
    "G"g4 ba| "Em"g4 gf| "C"e4 gf| "Am"e4 dc|    "G"Bc d2 B2| "D"c2 A2 ed| "D7"cB A2 F2| "G"G4|]
Bc| "G"d4 Bc| d4 ed| "Am"c4 cB| A4 AB|    "D"c3 d ed| "D7"c2 B2 A2| "G"B3 A GB| "D"A4 D2|
    "G"G3 A Bc| d2 B2 d2| "C"e3 d ce| "G"d4 d2|    "D"c2 A2 c2| "G"B2 d2 G2| "D7"AB c2 F2| "G"G4|]
% %text 9/1/98 For use only by Roaring Jelly members

#include "LeftHeader.h"
% ---------- page 12 ----------

